src/assets/icons/Twitter.svg

<?xml version="1.0" encoding="UTF-8"?>
<svg width="24px" height="24px" viewBox="0 0 24 24" version="1.1" xmlns="http://www.w3.org/2000/svg" xmlns:xlink="http://www.w3.org/1999/xlink">
    <!-- Generator: Sketch 60 (88103) - https://sketch.com -->
    <title>09 Icons / Social / Twitter</title>
    <desc>Created with Sketch.</desc>
    <g stroke="none" stroke-width="1" fill="none" fill-rule="evenodd">
        <path fill="white" d="M21.184,5.12202667 C22.2082976,4.49698751 22.9753634,3.51798579 23.344,2.36523113 C22.3792025,2.94521221 21.3241889,3.35483086 20.224,3.57659953 C18.8399204,2.08333971 16.6970098,1.59710143 14.816848,2.34968679 C12.9366862,3.10227215 11.6998617,4.94134037 11.696,6.99016106 C11.6979289,7.37212948 11.740848,7.75275195 11.824,8.12531216 C7.86590517,7.92378278 4.1784882,6.02801698 1.68,2.91010366 C1.23682584,3.6695842 1.00462382,4.53643164 1.008,5.4187876 C0.867369834,7.02635733 1.54988427,8.59472607 2.816,9.57344064 C1.9301656,9.44388077 1.05741341,9.23495129 0.208,8.94910753 L0.208,9.01235167 C0.377478697,11.4570877 2.16383534,13.4727132 4.544,13.9048529 C4.187335,14.0215325 3.81478348,14.0806338 3.44,14.0799905 C3.16029583,14.0809323 2.88132084,14.0510262 2.608,13.9908001 C3.26871598,16.0295595 5.13101599,17.4204464 7.248,17.4562542 C5.51277319,18.8463876 3.36382934,19.5992602 1.152,19.5919599 C0.766953322,19.5926519 0.382228459,19.5693644 0,19.5222292 C4.31219206,22.3214607 9.78762388,22.5134058 14.2803365,20.0228365 C18.7730491,17.5322672 21.5673184,12.7559505 21.568,7.56584483 C21.568,7.35016612 21.552,7.13448741 21.552,6.91718706 C22.5133746,6.2121312 23.3424518,5.33833661 24,4.33715077 C23.1055847,4.7407215 22.1562501,5.00532017 21.184,5.12202667 Z"></path>
        <path fill="#000000" d="M21.184,5.12202667 C22.2082976,4.49698751 22.9753634,3.51798579 23.344,2.36523113 C22.3792025,2.94521221 21.3241889,3.35483086 20.224,3.57659953 C18.8399204,2.08333971 16.6970098,1.59710143 14.816848,2.34968679 C12.9366862,3.10227215 11.6998617,4.94134037 11.696,6.99016106 C11.6979289,7.37212948 11.740848,7.75275195 11.824,8.12531216 C7.86590517,7.92378278 4.1784882,6.02801698 1.68,2.91010366 C1.23682584,3.6695842 1.00462382,4.53643164 1.008,5.4187876 C0.867369834,7.02635733 1.54988427,8.59472607 2.816,9.57344064 C1.9301656,9.44388077 1.05741341,9.23495129 0.208,8.94910753 L0.208,9.01235167 C0.377478697,11.4570877 2.16383534,13.4727132 4.544,13.9048529 C4.187335,14.0215325 3.81478348,14.0806338 3.44,14.0799905 C3.16029583,14.0809323 2.88132084,14.0510262 2.608,13.9908001 C3.26871598,16.0295595 5.13101599,17.4204464 7.248,17.4562542 C5.51277319,18.8463876 3.36382934,19.5992602 1.152,19.5919599 C0.766953322,19.5926519 0.382228459,19.5693644 0,19.5222292 C4.31219206,22.3214607 9.78762388,22.5134058 14.2803365,20.0228365 C18.7730491,17.5322672 21.5673184,12.7559505 21.568,7.56584483 C21.568,7.35016612 21.552,7.13448741 21.552,6.91718706 C22.5133746,6.2121312 23.3424518,5.33833661 24,4.33715077 C23.1055847,4.7407215 22.1562501,5.00532017 21.184,5.12202667 Z"></path>
    </g>
</svg>

<svg width="24" height="24" viewBox="0 0 24 24" xmlns="http://www.w3.org/2000/svg" xmlns:xlink="http://www.w3.org/1999/xlink"><defs><path d="M21.184 5.122a5.016 5.016 0 002.16-2.757c-.965.58-2.02.99-3.12 1.212a4.887 4.887 0 00-5.407-1.227c-1.88.752-3.117 2.591-3.121 4.64.002.382.045.763.128 1.135A13.91 13.91 0 011.68 2.91a4.941 4.941 0 00-.672 2.509 4.73 4.73 0 001.808 4.154A14.969 14.969 0 01.208 8.95v.063c.17 2.445 1.956 4.46 4.336 4.893a3.53 3.53 0 01-1.104.175c-.28 0-.559-.029-.832-.09.66 2.04 2.523 3.43 4.64 3.466A9.697 9.697 0 010 19.522a13.851 13.851 0 0014.28.5c4.493-2.49 7.287-7.266 7.288-12.456 0-.216-.016-.432-.016-.649A10.019 10.019 0 0024 4.337a9.64 9.64 0 01-2.816.785z" /></defs><use fill="#000" xlink:href="#a" fill-rule="evenodd"/></svg>
